X: 23979
T: Lockdown, The
R: reel
M: 4/4
K: Cmajor
cd|:ec c/d/c GFEG|CDEG c2 de|f2 dc BG G/A/G|BcdB GBdB|
c/d/c GF EC C/D/C|G,CEG c2 de|f2 ef dcBc|d/e/d cB c2 cd:|
eg g/^f/g agge|cege aege|dG G/A/G dG G/A/G|Bcde fdBd|
cdec GFEG|F/G/F AF CFAc|Bcde fdBc|dccB c2 cd:|

